X: 76
M:C|
L:1/8
K:F
(uc>A)|F>Ac>A G>Bd>B|A>cf>g a>fc>A|\
|:(uef)|g>c(3ccc a>c(3ccc|b>ca>c g>c(3ccc|\
b>ca>c g>fe>f|(3gag (3fed (3cdc (3BAG|


